Newaita-dark/.places-blue/16/folder-activities.svg

<?xml version="1.0" encoding="UTF-8"?>
<svg xmlns="http://www.w3.org/2000/svg" xmlns:xlink="http://www.w3.org/1999/xlink" width="16pt" height="16pt" viewBox="0 0 16 16" version="1.1">
<defs>
<linearGradient id="linear0" gradientUnits="userSpaceOnUse" x1="254" y1="233.5" x2="254" y2="254.666672" gradientTransform="matrix(0.031253,0,0,0.031253,-0.00000190753,6.719393)">
<stop offset="0" style="stop-color:rgb(0%,0%,0%);stop-opacity:0.27451;"/>
<stop offset="1" style="stop-color:rgb(0%,0%,0%);stop-opacity:0;"/>
</linearGradient>
<radialGradient id="radial0" gradientUnits="userSpaceOnUse" cx="450.908936" cy="189.579361" fx="450.908936" fy="189.579361" r="21.166656" gradientTransform="matrix(0.0000000870852,-0.0390662,-0.0703192,-0.0000000507693,27.057606,31.797666)">
<stop offset="0" style="stop-color:rgb(0%,0%,0%);stop-opacity:0.313725;"/>
<stop offset="0.222222" style="stop-color:rgb(0%,0%,0%);stop-opacity:0.27451;"/>
<stop offset="1" style="stop-color:rgb(0%,0%,0%);stop-opacity:0;"/>
</radialGradient>
<radialGradient id="radial1" gradientUnits="userSpaceOnUse" cx="450.908936" cy="189.579361" fx="450.908936" fy="189.579361" r="21.166656" gradientTransform="matrix(-0.0000000870852,0.0390662,0.0703192,0.0000000507693,-11.181089,-3.763739)">
<stop offset="0" style="stop-color:rgb(0%,0%,0%);stop-opacity:0.313725;"/>
<stop offset="0.222222" style="stop-color:rgb(0%,0%,0%);stop-opacity:0.27451;"/>
<stop offset="1" style="stop-color:rgb(0%,0%,0%);stop-opacity:0;"/>
</radialGradient>
<radialGradient id="radial2" gradientUnits="userSpaceOnUse" cx="450.908936" cy="189.579361" fx="450.908936" fy="189.579361" r="21.166656" gradientTransform="matrix(-0.0000000870852,-0.0390662,0.0703192,-0.0000000507693,-11.181089,31.797666)">
<stop offset="0" style="stop-color:rgb(0%,0%,0%);stop-opacity:0.313725;"/>
<stop offset="0.222222" style="stop-color:rgb(0%,0%,0%);stop-opacity:0.27451;"/>
<stop offset="1" style="stop-color:rgb(0%,0%,0%);stop-opacity:0;"/>
</radialGradient>
<radialGradient id="radial3" gradientUnits="userSpaceOnUse" cx="450.908936" cy="189.579361" fx="450.908936" fy="189.579361" r="21.166656" gradientTransform="matrix(0.0000000870852,0.0390662,-0.0703192,0.0000000507693,27.057605,-3.76374)">
<stop offset="0" style="stop-color:rgb(0%,0%,0%);stop-opacity:0.313725;"/>
<stop offset="0.222222" style="stop-color:rgb(0%,0%,0%);stop-opacity:0.27451;"/>
<stop offset="1" style="stop-color:rgb(0%,0%,0%);stop-opacity:0;"/>
</radialGradient>
<linearGradient id="linear1" gradientUnits="userSpaceOnUse" x1="296.333344" y1="233.5" x2="296.333344" y2="-147.5" gradientTransform="matrix(0.031253,0,0,0.031253,0,6.719392)">
<stop offset="0" style="stop-color:rgb(12.941176%,58.823529%,95.294118%);stop-opacity:1;"/>
<stop offset="1" style="stop-color:rgb(25.882353%,64.705882%,96.078431%);stop-opacity:1;"/>
</linearGradient>
<linearGradient id="linear2" gradientUnits="userSpaceOnUse" x1="254" y1="-147.5" x2="254" y2="233.5" gradientTransform="matrix(0.031253,0,0,0.031253,0,6.719391)">
<stop offset="0" style="stop-color:rgb(39.215686%,70.980392%,96.470588%);stop-opacity:1;"/>
<stop offset="1" style="stop-color:rgb(25.882353%,64.705882%,96.078431%);stop-opacity:1;"/>
</linearGradient>
<linearGradient id="linear3" gradientUnits="userSpaceOnUse" x1="328.083344" y1="222.916672" x2="328.083344" y2="-158.083328" gradientTransform="matrix(1,0,0,1,0.000004,10.583063)">
<stop offset="0" style="stop-color:rgb(12.941176%,58.823529%,95.294118%);stop-opacity:1;"/>
<stop offset="1" style="stop-color:rgb(25.882353%,64.705882%,96.078431%);stop-opacity:1;"/>
</linearGradient>
</defs>
<g id="surface1">
<path style=" stroke:none;fill-rule:nonzero;fill:url(#linear0);" d="M 1.984375 14.015625 L 13.890625 14.015625 L 13.890625 14.679688 L 1.984375 14.679688 Z M 1.984375 14.015625 "/>
<path style=" stroke:none;fill-rule:nonzero;fill:url(#radial0);" d="M 13.890625 14.015625 L 15.214844 14.015625 L 15.214844 13.355469 L 13.890625 13.355469 Z M 13.890625 14.015625 "/>
<path style=" stroke:none;fill-rule:nonzero;fill:url(#radial1);" d="M 1.984375 14.015625 L 0.660156 14.015625 L 0.660156 14.679688 L 1.984375 14.679688 Z M 1.984375 14.015625 "/>
<path style=" stroke:none;fill-rule:nonzero;fill:url(#radial2);" d="M 1.984375 14.015625 L 0.660156 14.015625 L 0.660156 13.355469 L 1.984375 13.355469 Z M 1.984375 14.015625 "/>
<path style=" stroke:none;fill-rule:nonzero;fill:url(#radial3);" d="M 13.890625 14.015625 L 15.214844 14.015625 L 15.214844 14.679688 L 13.890625 14.679688 Z M 13.890625 14.015625 "/>
<path style=" stroke:none;fill-rule:nonzero;fill:url(#linear1);" d="M 3.636719 2.109375 L 14.386719 2.109375 C 14.753906 2.109375 15.050781 2.40625 15.050781 2.769531 L 15.050781 5.25 C 15.050781 5.617188 14.753906 5.914062 14.386719 5.914062 L 3.636719 5.914062 C 3.273438 5.914062 2.976562 5.617188 2.976562 5.25 L 2.976562 2.769531 C 2.976562 2.40625 3.273438 2.109375 3.636719 2.109375 Z M 3.636719 2.109375 "/>
<path style=" stroke:none;fill-rule:nonzero;fill:rgb(90.196079%,90.196079%,90.196079%);fill-opacity:0.588235;" d="M 3.636719 2.109375 C 3.273438 2.109375 2.976562 2.40625 2.976562 2.769531 L 2.976562 2.855469 C 2.976562 2.488281 3.273438 2.191406 3.636719 2.191406 L 14.386719 2.191406 C 14.753906 2.191406 15.050781 2.488281 15.050781 2.855469 L 15.050781 2.769531 C 15.050781 2.40625 14.753906 2.109375 14.386719 2.109375 Z M 3.636719 2.109375 "/>
<path style=" stroke:none;fill-rule:nonzero;fill:rgb(12.941177%,12.941177%,12.941177%);fill-opacity:1;" d="M 3.636719 2.0625 C 3.246094 2.0625 2.929688 2.378906 2.929688 2.769531 L 2.929688 5.25 C 2.929688 5.644531 3.246094 5.960938 3.636719 5.960938 L 14.386719 5.960938 C 14.78125 5.960938 15.097656 5.644531 15.097656 5.25 L 15.097656 2.769531 C 15.097656 2.378906 14.78125 2.0625 14.386719 2.0625 Z M 3.636719 2.15625 L 14.386719 2.15625 C 14.730469 2.15625 15.003906 2.429688 15.003906 2.769531 L 15.003906 5.25 C 15.003906 5.59375 14.730469 5.867188 14.386719 5.867188 L 3.636719 5.867188 C 3.296875 5.867188 3.023438 5.59375 3.023438 5.25 L 3.023438 2.769531 C 3.023438 2.429688 3.296875 2.15625 3.636719 2.15625 Z M 3.636719 2.15625 "/>
<path style=" stroke:none;fill-rule:nonzero;fill:url(#linear2);" d="M 1.324219 3.433594 C 0.957031 3.433594 0.660156 3.726562 0.660156 4.09375 L 0.660156 13.355469 C 0.660156 13.722656 0.957031 14.015625 1.324219 14.015625 L 14.554688 14.015625 C 14.921875 14.015625 15.214844 13.722656 15.214844 13.355469 L 15.214844 5.085938 L 6.285156 5.085938 C 5.917969 5.085938 5.621094 4.792969 5.621094 4.425781 L 5.621094 3.433594 Z M 1.324219 3.433594 "/>
<path style=" stroke:none;fill-rule:nonzero;fill:rgb(0%,0%,0%);fill-opacity:0.196078;" d="M 1.324219 14.015625 C 0.957031 14.015625 0.660156 13.722656 0.660156 13.355469 L 0.660156 13.273438 C 0.660156 13.640625 0.957031 13.933594 1.324219 13.933594 L 14.554688 13.933594 C 14.921875 13.933594 15.214844 13.640625 15.214844 13.273438 L 15.214844 13.355469 C 15.214844 13.722656 14.921875 14.015625 14.554688 14.015625 Z M 1.324219 14.015625 "/>
<path style=" stroke:none;fill-rule:nonzero;fill:rgb(90.196079%,90.196079%,90.196079%);fill-opacity:0.937255;" d="M 1.324219 3.433594 C 0.957031 3.433594 0.660156 3.726562 0.660156 4.09375 L 0.660156 4.175781 C 0.660156 3.808594 0.957031 3.515625 1.324219 3.515625 L 5.621094 3.515625 L 5.621094 3.433594 Z M 1.324219 3.433594 "/>
<path style=" stroke:none;fill-rule:nonzero;fill:rgb(90.196079%,90.196079%,90.196079%);fill-opacity:0.937255;" d="M 6.242188 5.128906 C 5.875 5.128906 5.582031 4.832031 5.582031 4.464844 L 5.582031 4.382812 C 5.582031 4.75 5.875 5.046875 6.242188 5.046875 L 15.214844 5.046875 L 15.214844 5.128906 Z M 6.242188 5.128906 "/>
<path style=" stroke:none;fill-rule:nonzero;fill:rgb(12.941177%,12.941177%,12.941177%);fill-opacity:1;" d="M 1.324219 3.386719 C 0.929688 3.386719 0.613281 3.703125 0.613281 4.09375 L 0.613281 13.355469 C 0.613281 13.746094 0.929688 14.0625 1.324219 14.0625 L 14.554688 14.0625 C 14.945312 14.0625 15.261719 13.746094 15.261719 13.355469 L 15.261719 4.992188 L 6.285156 4.992188 C 5.941406 4.992188 5.667969 4.71875 5.667969 4.378906 L 5.667969 3.386719 Z M 1.324219 3.480469 L 5.574219 3.480469 L 5.574219 4.378906 C 5.574219 4.769531 5.894531 5.085938 6.285156 5.085938 L 15.167969 5.085938 L 15.167969 13.355469 C 15.167969 13.695312 14.894531 13.96875 14.554688 13.96875 L 1.324219 13.96875 C 0.980469 13.96875 0.707031 13.695312 0.707031 13.355469 L 0.707031 4.09375 C 0.707031 3.753906 0.980469 3.480469 1.324219 3.480469 Z M 1.324219 3.480469 "/>
<path style="fill-rule:nonzero;fill:url(#linear3);stroke-width:3;stroke-linecap:round;stroke-linejoin:miter;stroke:rgb(12.941177%,12.941177%,12.941177%);stroke-opacity:1;stroke-miterlimit:4;" d="M 169.358827 53.59935 C 163.484388 53.59935 158.734842 58.348896 158.734842 64.223336 L 158.734842 85.346318 C 158.734842 91.220757 163.484388 95.970304 169.358827 95.970304 L 190.48181 95.970304 C 196.356249 95.970304 201.105795 91.220757 201.105795 85.346318 L 201.105795 64.223336 C 201.105795 58.348896 196.356249 53.59935 190.48181 53.59935 Z M 243.476749 53.59935 C 237.60231 53.59935 232.852764 58.348896 232.852764 64.223336 L 232.852764 85.346318 C 232.852764 91.220757 237.60231 95.970304 243.476749 95.970304 L 264.599732 95.970304 C 270.474171 95.970304 275.223717 91.220757 275.223717 85.346318 L 275.223717 64.223336 C 275.223717 58.348896 270.474171 53.59935 264.599732 53.59935 Z M 317.469683 53.59935 C 311.595244 53.59935 306.970686 58.348896 306.970686 64.223336 L 306.970686 85.346318 C 306.970686 91.220757 311.595244 95.970304 317.469683 95.970304 L 338.717654 95.970304 C 344.592093 95.970304 349.216651 91.220757 349.216651 85.346318 L 349.216651 64.223336 C 349.216651 58.348896 344.592093 53.59935 338.717654 53.59935 Z M 317.469683 53.59935 " transform="matrix(0.031253,0,0,0.031253,0,6.719392)"/>
</g>
</svg>

<svg xmlns="http://www.w3.org/2000/svg" width="16pt" height="16pt" viewBox="0 0 16 16"><defs><linearGradient id="a" gradientUnits="userSpaceOnUse" x1="254" y1="233.5" x2="254" y2="254.667" gradientTransform="matrix(.03125 0 0 .03125 0 6.72)"><stop offset="0" stop-opacity=".275"/><stop offset="1" stop-opacity="0"/></linearGradient><radialGradient id="b" gradientUnits="userSpaceOnUse" cx="450.909" cy="189.579" fx="450.909" fy="189.579" r="21.167" gradientTransform="matrix(0 -.03907 -.07032 0 27.058 31.798)"><stop offset="0" stop-opacity=".314"/><stop offset=".222" stop-opacity=".275"/><stop offset="1" stop-opacity="0"/></radialGradient><radialGradient id="c" gradientUnits="userSpaceOnUse" cx="450.909" cy="189.579" fx="450.909" fy="189.579" r="21.167" gradientTransform="matrix(0 .03907 .07032 0 -11.181 -3.764)"><stop offset="0" stop-opacity=".314"/><stop offset=".222" stop-opacity=".275"/><stop offset="1" stop-opacity="0"/></radialGradient><radialGradient id="d" gradientUnits="userSpaceOnUse" cx="450.909" cy="189.579" fx="450.909" fy="189.579" r="21.167" gradientTransform="matrix(0 -.03907 .07032 0 -11.181 31.798)"><stop offset="0" stop-opacity=".314"/><stop offset=".222" stop-opacity=".275"/><stop offset="1" stop-opacity="0"/></radialGradient><radialGradient id="e" gradientUnits="userSpaceOnUse" cx="450.909" cy="189.579" fx="450.909" fy="189.579" r="21.167" gradientTransform="matrix(0 .03907 -.07032 0 27.058 -3.764)"><stop offset="0" stop-opacity=".314"/><stop offset=".222" stop-opacity=".275"/><stop offset="1" stop-opacity="0"/></radialGradient><linearGradient id="f" gradientUnits="userSpaceOnUse" x1="296.333" y1="233.5" x2="296.333" y2="-147.5" gradientTransform="matrix(.03125 0 0 .03125 0 6.72)"><stop offset="0" stop-color="#2196f3"/><stop offset="1" stop-color="#42a5f5"/></linearGradient><linearGradient id="g" gradientUnits="userSpaceOnUse" x1="254" y1="-147.5" x2="254" y2="233.5" gradientTransform="matrix(.03125 0 0 .03125 0 6.72)"><stop offset="0" stop-color="#64b5f6"/><stop offset="1" stop-color="#42a5f5"/></linearGradient><linearGradient id="h" gradientUnits="userSpaceOnUse" x1="328.083" y1="222.917" x2="328.083" y2="-158.083" gradientTransform="translate(0 10.583)"><stop offset="0" stop-color="#2196f3"/><stop offset="1" stop-color="#42a5f5"/></linearGradient></defs><path d="M1.984 14.016h11.907v.664H1.984zm0 0" fill="url(#a)"/><path d="M13.89 14.016h1.325v-.66H13.89zm0 0" fill="url(#b)"/><path d="M1.984 14.016H.66v.664h1.324zm0 0" fill="url(#c)"/><path d="M1.984 14.016H.66v-.66h1.324zm0 0" fill="url(#d)"/><path d="M13.89 14.016h1.325v.664H13.89zm0 0" fill="url(#e)"/><path d="M3.637 2.11h10.75c.367 0 .664.296.664.66v2.48a.664.664 0 0 1-.664.664H3.637a.663.663 0 0 1-.66-.664V2.77c0-.364.296-.66.66-.66zm0 0" fill="url(#f)"/><path d="M3.637 2.11a.662.662 0 0 0-.66.66v.085c0-.367.296-.664.66-.664h10.75c.367 0 .664.297.664.664V2.77a.663.663 0 0 0-.664-.66zm0 0" fill="#e6e6e6" fill-opacity=".588"/><path d="M3.637 2.063a.707.707 0 0 0-.707.707v2.48c0 .395.316.71.707.71h10.75c.394 0 .71-.315.71-.71V2.77a.708.708 0 0 0-.71-.708zm0 .093h10.75c.343 0 .617.274.617.614v2.48a.614.614 0 0 1-.617.617H3.637a.613.613 0 0 1-.614-.617V2.77c0-.34.274-.614.614-.614zm0 0" fill="#212121"/><path d="M1.324 3.434a.66.66 0 0 0-.664.66v9.261c0 .368.297.66.664.66h13.23c.368 0 .66-.292.66-.66v-8.27H6.286a.66.66 0 0 1-.664-.66v-.991zm0 0" fill="url(#g)"/><path d="M1.324 14.016a.66.66 0 0 1-.664-.66v-.083c0 .368.297.66.664.66h13.23c.368 0 .66-.292.66-.66v.082c0 .368-.292.66-.66.66zm0 0" fill-opacity=".196"/><path d="M1.324 3.434a.66.66 0 0 0-.664.66v.082a.66.66 0 0 1 .664-.66h4.297v-.082zm0 0M6.242 5.129a.66.66 0 0 1-.66-.664v-.082a.66.66 0 0 0 .66.664h8.973v.082zm0 0" fill="#e6e6e6" fill-opacity=".937"/><path d="M1.324 3.387a.708.708 0 0 0-.71.707v9.261c0 .391.316.707.71.707h13.23c.391 0 .708-.316.708-.707V4.992H6.285a.613.613 0 0 1-.617-.613v-.992zm0 .093h4.25v.899c0 .39.32.707.711.707h8.883v8.27c0 .34-.273.613-.613.613H1.325a.613.613 0 0 1-.618-.614V4.094c0-.34.273-.614.617-.614zm0 0" fill="#212121"/><path d="M169.359 53.6a10.615 10.615 0 0 0-10.624 10.623v21.123c0 5.875 4.75 10.624 10.624 10.624h21.123c5.874 0 10.624-4.75 10.624-10.624V64.223c0-5.874-4.75-10.624-10.624-10.624zm74.118 0a10.615 10.615 0 0 0-10.624 10.623v21.123c0 5.875 4.75 10.624 10.624 10.624H264.6c5.874 0 10.624-4.75 10.624-10.624V64.223c0-5.874-4.75-10.624-10.624-10.624zm73.993 0c-5.875 0-10.5 4.749-10.5 10.623v21.123c0 5.875 4.625 10.624 10.5 10.624h21.248c5.874 0 10.499-4.75 10.499-10.624V64.223c0-5.874-4.625-10.624-10.5-10.624zm0 0" transform="matrix(.03125 0 0 .03125 0 6.72)" fill="url(#h)" stroke-width="3" stroke-linecap="round" stroke="#212121"/></svg>
